src/packages/tokens/img/sd.svg

<svg width="20" height="20" viewBox="0 0 20 20" fill="none" xmlns="http://www.w3.org/2000/svg">
<path d="M10 20C15.5228 20 20 15.5228 20 10C20 4.47715 15.5228 0 10 0C4.47715 0 0 4.47715 0 10C0 15.5228 4.47715 20 10 20Z" fill="#07A658"/>
<path fill-rule="evenodd" clip-rule="evenodd" d="M13.1971 4.38368C13.4219 4.40973 13.5643 4.63765 13.4892 4.85104L12.3903 7.97367C12.2922 8.25247 11.9152 8.29413 11.7586 8.04348L11.5239 7.66795L7.28255 10.3183L6.84639 9.62026C6.14975 8.50539 6.48878 7.03687 7.60364 6.34023L9.82639 4.95129L9.56918 4.53967C9.41256 4.28902 9.61526 3.96847 9.90885 4.0025L13.1971 4.38368ZM8.75088 11.624C7.21871 12.5086 6.69375 14.4678 7.57834 16L11.8935 13.5086C13.032 12.8513 13.4221 11.3955 12.7648 10.257L12.3532 9.54421L8.75088 11.624Z" fill="white"/>
</svg>

<svg xmlns="http://www.w3.org/2000/svg" width="20" height="20" fill="none" xmlns:v="https://vecta.io/nano"><path d="M10 20c5.523 0 10-4.477 10-10S15.523 0 10 0 0 4.477 0 10s4.477 10 10 10z" fill="#07a658"/><path fill-rule="evenodd" d="M13.197 4.384c.225.026.367.254.292.467L12.39 7.974c-.098.279-.475.32-.632.07l-.235-.376-4.241 2.65-.436-.698a2.38 2.38 0 0 1 .757-3.28l2.223-1.389-.257-.412c-.157-.251.046-.571.34-.537l3.288.381zm-4.446 7.24c-1.532.885-2.057 2.844-1.173 4.376l4.315-2.491a2.38 2.38 0 0 0 .871-3.252l-.412-.713-3.602 2.08z" fill="#fff"/></svg>
